X:188
T: RUPFE RUPFE GRAESCHEN
N: K2427
O: Europa, Mitteleuropa, Deutschland, Thueringen
R: Kinder - Lied, Tanz -, Lauf - Spiel
M: 2/4
L: 1/8
K: F
 | ccdd | c2A
A | BBGG | A2z
A | ccdd | ccA
A | BBGG | F2z2

